X: 8470
T: Cranbury
R: hornpipe
M: 4/4
K: Amajor
((3EFG)|A>G A>c e>c A>c|B>A G>F E2 ((3EFG)|A>G A>c e>c A>c|
B>A G>A B2 ((3EFG)|A>G A>B c>c B>A|d>c d>e f>a g>f|
e>c A>c d>B G>B|A>G A>B A2 ((3ABc)|d>c d>c B2 ((3Bcd)|
e>d e>d c2 ((3cde)|f>g a>g f>e c>A|({c} B>)A G>A B2 ((3EFG)|
A>G A>B c>c B>A|d>c d>e f2 f>g|a>b a>e f>e c>A|({c} B>)A A>B A2||

